!!!!SEGMENT: pl-sa--l-1643--077_anonim--veritas-mea-et-misericordia-mea-cum-ipso.krn
!!!cenid: 16xx:1435
!!!COM: Anonim
!!!COM-rismid: pe30004985
!!!CDT:
!!!CNT:
!!!OTL: Veritas mea et misericordia mea cum ipso
!!!PDT:
!!!AGN: Sacred
!!!SMS-siglum: PL-SA
!!!SMS-shelfmark: L 1643
!!!SMS-shelfwork: 077 W
!!!SMS-variant:
!!!SMS-altvar:
!!!NIFC-rismid: 1001064780
!!!URL-scan: http://repozytorium.nifc.pl/skany/pl-sa-nut--l1643
!!!ONB-nifc: UWAGA: 8 ksiąg. Primi chori: 1mus Cantus (x), C 2dus (123-124), C 3tius (x), Bassus (x); Secondi chori: Primus Cantus (x), C 2dus (106), Altus (x), Bassus (125-126). UWAGA: Nie dodawać pustych linii, chyba że w rękopisie pojawiają się dodatkowe oznaczenia dotyczące pełnej obsady (a 4, a 8 itp.)
**kern	**text	**kern	**text	**kern	**text
*part3	*part3	*part2	*part2	*part1	*part1
*staff3	*staff3	*staff2	*staff2	*staff1	*staff1
*Iempty	*	*Iempty	*	*Iempty	*
*I"Secondi chori: Bassus	*	*I"Secondi chori: C 2dus	*	*I"Primi chori: C 2dus	*
*I'Coro 2 B	*	*I'Coro 2 C 2	*	*I'Coro 1 C 2	*
*clefC3	*	*clefC1	*	*clefC1	*
*k[]	*	*k[]	*	*k[]	*
*c:	*	*c:	*	*c:	*
*M2/1	*	*M2/1	*	*M2/1	*
*met(c|) 	*	*met(c|) 	*	*met(c|) 	*
=1-	=1-	=1-	=1-	=1-	=1-
!LO:TX:t=Pro Festo S\nNicolai A8 V	!	!	!	!	!
00r	.	00r	.	00r	.
=2-	=2-	=2-	=2-	=2-	=2-
.	.	.	.	.	.
=3-	=3-	=3-	=3-	=3-	=3-
1r	.	1r	.	0r	.
4.c/	Et	4.cc\	Et	.	.
8c/	mi-	8cc\	mi-	.	.
4c/	-ſe-	4cc\	-se-	.	.
4c/	-ri-	4cc\	-ri-	.	.
=4-	=4-	=4-	=4-	=4-	=4-
4.G/	-cor-	4.b\	-cor-	4.b\	Et
!	!	!LO:TX:t=P:problem:niewyraźne źródło	!	!	!
8G/	-di-	8b\	-di-	8b\	mi-
2G/	-a	2b\	-a	4dd\	-se-
.	.	.	.	4dd\	-ri-
4.c/	et	4.g/	et	4.cc\	-cor-
8c/	mi-	8g/	mi-	8cc\	-di-
4c/	-ſe-	4g/	-se-	2cc\	-a
4c/	-ri-	4g/	-ri-	.	.
=5-	=5-	=5-	=5-	=5-	=5-
4.g\	-cor-	4.b\	-cor-	1b	me-
8g\	-di-	8b\	-di-	.	.
4g\	-a	4b\	-a	.	.
!LO:SIC:v:t=custos c	!	!	!	!	!
4g\	me-	4b\	me-	.	.
!LO:LB:g=original	!	!	!	!	!
2c/	-a	2g/	-a	2cc\	-a
2g\	cum	2g/	cum	2b\	cum
=6-	=6-	=6-	=6-	=6-	=6-
1d	i-	1dd	i-	1a	i-
1g	-pſo:	1b	-pso	1b	-pso,
=7-	=7-	=7-	=7-	=7-	=7-
!LO:TX:b:t=Veritas:	!	!	!	!	!
00r	.	00r	.	00r	.
=8-	=8-	=8-	=8-	=8-	=8-
.	.	.	.	.	.
=9-	=9-	=9-	=9-	=9-	=9-
4.g\	Et	4.b\	Et	1r	.
8g\	mi-	8b\	mi-	.	.
4g\	-ſe-	4b\	-se-	.	.
4g\	-ri-	4b\	-ri-	.	.
4.c/	-cor-	4.cc\	-cor-	4.cc\	et
!	!	!LO:SIC:v:t=custos cc	!	!	!
8c/	-di-	8cc\	-di-	8cc\	mi-
!	!	!LO:LB:g=original	!	!	!
2c/	-a	2cc\	-a	4cc\	-se-
.	.	.	.	4cc\	-ri-
=10-	=10-	=10-	=10-	=10-	=10-
4.F/	Et	4.a\	et	4.cc\	-cor-
8F/	mi-	8a\	mi-	8cc\	-di-
4c/	-ſe-	4cc\	-se-	2cc\	-a
4c/	-ri-	4cc\	-ri-	.	.
!	!	!	!	!LO:SIC:v:t=custos b	!
4.F/	-cor-	4.a\	-cor-	[y2a\	me-
8F/	-di-	8a\	-di-	.	.
!	!	!	!	!LO:LB:g=original	!
!	!	!	!	!LO:N:xstem:cue	!
4F/	-a	4a\	-a	4a\]	.
4F/	me-	4a\	me-	4b\	.
=11-	=11-	=11-	=11-	=11-	=11-
2c/	-a	2g/	-a	2cc\	-a
2c/	cum	2cc\	cum	2.cc\	cum
1g	i-	1g	i-	.	.
.	.	.	.	8b\L	.
.	.	.	.	8a\J	.
.	.	.	.	2b\	i-
=12-	=12-	=12-	=12-	=12-	=12-
!LO:SIC:v:t=custos g	!	!	!	!	!
1c	-pso	1g	-pso	1cc	-pso,
!LO:LB:g=original	!	!	!	!	!
!LO:TX:b:t=intonat&colon;	!	!	!	!	!
00r	.	00r	.	00r	.
=13-	=13-	=13-	=13-	=13-	=13-
.	.	.	.	.	.
=14-	=14-	=14-	=14-	=14-	=14-
.	.	.	.	.	.
!LO:N:vis=2.	!	!	!	!	!
4.g\	Et	4.b\	Et	1r	.
8g\	mi-	8b\	mi-	.	.
!LO:N:vis=2	!	!	!	!	!
4g\	-ſe-	4b\	-se-	.	.
!LO:N:vis=2	!	!	!	!	!
4g\	-ri-	4b\	-ri-	.	.
=15-	=15-	=15-	=15-	=15-	=15-
2.c/	-cor-	2.cc\	-cor-	4.cc\	et
.	.	.	.	8cc\	mi-
.	.	.	.	4cc\	-se-
4c/	-di-	4cc\	-di-	4cc\	-ri-
1F	-a	1a	-a,	4.cc\	-cor-
.	.	.	.	8cc\	-di-
.	.	.	.	2cc\	-a
=16-	=16-	=16-	=16-	=16-	=16-
!LO:TX:t=P:problem:przerywana kreska pseudotaktowa	!	!LO:TX:t=P:problem:przerywana kreska pseudotaktowa	!	!	!
00r	.	00r	.	1b	me-
.	.	.	.	2cc\	-a
.	.	.	.	2.dd\	cum
=17-	=17-	=17-	=17-	=17-	=17-
.	.	.	.	.	.
.	.	.	.	8cc\L	.
.	.	.	.	8b\J	.
!	!	!	!	!LO:TX:t=P:problem:# below	!
.	.	.	.	2cc#X\	i-
!	!	!	!	!LO:TX:t=P:problem:kreska pseudotaktowa	!
.	.	.	.	1dd;<	-pso,
=18-	=18-	=18-	=18-	=18-	=18-
1.G	Et	1.b	Et	00r	.
2G/	in	2b\	in	.	.
=19-	=19-	=19-	=19-	=19-	=19-
!	!	!LO:SIC:v:t=custos cc	!	!	!
2.c/	no-	[y2cc\	no-	.	.
!	!	!LO:LB:g=original	!	!	!
!	!	!LO:N:xstem:cue	!	!	!
.	.	4cc\]	.	.	.
4c/	-mi-	4cc\	-mi-	.	.
2G/	-ne	2b\	-ne	.	.
2A/	me-	2a\	me-	.	.
=20-	=20-	=20-	=20-	=20-	=20-
2G/	-o	2b\	-o,	2r	.
!	!	!	!	!LO:SIC:v:t=custos cc	!
2r	.	2r	.	1ccny	Et
0r	.	0r	.	.	.
!	!	!	!	!LO:LB:g=original	!
.	.	.	.	2cc\	in
=21-	=21-	=21-	=21-	=21-	=21-
.	.	.	.	2.cc\	no-
.	.	.	.	4cc\	-mi-
1r	.	1r	.	2cc\	-ne
.	.	.	.	4a\	me-
.	.	.	.	4b\	.
=22-	=22-	=22-	=22-	=22-	=22-
2r	.	2r	.	2cc\	-o,
2g\	in	2g/	in	2r	.
2f\	no-	2cc\	no-	0r	.
2e\	-mi-	2g/	-mi-	.	.
=23-	=23-	=23-	=23-	=23-	=23-
2f\	-ne	2cc\	-ne	.	.
!LO:SIC:v:t=custos c	!	!	!	!	!
2d\	me-	2dd\	me-	.	.
!LO:PB:g=original	!	!	!	!	!
2c/	-o	2g/	-o,	2r	.
2r	.	2r	.	2b\	in
=24-	=24-	=24-	=24-	=24-	=24-
0r	.	0r	.	2cc\	no-
.	.	.	.	2dd\	-mi-
.	.	.	.	2cc\	-ne
.	.	.	.	2a\	me-
=25-	=25-	=25-	=25-	=25-	=25-
*M3/2	*	*M3/2	*	*M3/2	*
1r	.	1r	.	0b	-o,
1g	E-	1b	E-	.	.
!	!	!	!	!LO:TX:t=P:problem:niewyraźne źródło	!
1c	-xal-	1cc	-xal-	1r	.
=26-	=26-	=26-	=26-	=26-	=26-
1.g	-ta-	1.b	-ta-	0b	e-
2g\	-bi-	2b\	-bi-	.	.
1g	-tur	1b	-tur	1b	-xal-
=27-	=27-	=27-	=27-	=27-	=27-
0c	e-	0cc	e-	1.cc	-ta-
.	.	.	.	2cc\	-bi-
!	!	!LO:SIC:v:t=custos cc	!	!	!
1c	-xal-	1cc	-xal-	1cc	-tur
=28-	=28-	=28-	=28-	=28-	=28-
!	!	!LO:LB:g=original	!	!	!
1.c	-ta-	1.cc	-ta-	0cc	e-
2c/	-bi-	2cc\	-bi-	.	.
!	!	!	!	!LO:TX:t=P:problem:przerywana kreska pseudotaktowa	!
!	!	!	!	!LO:SIC:v:t=custos cc	!
1c	-tur	1cc	-tur	1cc	-xal-
=29-	=29-	=29-	=29-	=29-	=29-
!	!	!	!	!LO:PB:g=original	!
0F	e-	0cc	e-	1.cc	-ta-
.	.	.	.	2cc\	-bi-
1F	-xal-	1a	-xal-	1cc	-tur
=30-	=30-	=30-	=30-	=30-	=30-
0f	-ta-	0a	-ta-	0a	e-
1f	-bi-	1a	-bi-	1cc	-xal-
=31-	=31-	=31-	=31-	=31-	=31-
0.c	-tur	0.cc	-tur	1.cc	-ta-
.	.	.	.	2cc\	-bi-
.	.	.	.	1cc	-tur
=32-	=32-	=32-	=32-	=32-	=32-
*M2/1	*	*M2/1	*	*M2/1	*
*met(c|)	*	*met(c|)	*	*met(c|)	*
2r	.	2r	.	1r	.
2g\	cor-	2b\	cor-	.	.
!LO:SIC:v:t=custos G	!	!	!	!	!
2d\	-nu	2a\	-nu	2r	.
!LO:LB:g=original	!	!	!	!	!
2G/	e-	2g/	e-	2b\	cor-
=33-	=33-	=33-	=33-	=33-	=33-
2d\	-ius	2a\	-ius	2a\	-nu
2r	.	2r	.	2b\	e-
2r	.	2r	.	2a\	-ius
2g\	cor-	2b\	cor-	2r	.
=34-	=34-	=34-	=34-	=34-	=34-
2d\	-nu	2a\	-nu	2r	.
2G/	e-	2g/	e-	2b\	cor-
2d\	-ius	2a\	-ius	2a\	-nu
2r	.	2r	.	2b\	e-
=35-	=35-	=35-	=35-	=35-	=35-
2r	.	2r	.	2a\	-ius
!	!	!LO:SIC:v:t=custos cc	!	!	!
2g\	cor-	2b\	cor-	2r	.
!	!	!LO:LB:g=original	!	!LO:SIC:v:t=custos b	!
1c	-nu	1cc	-nu	1cc	cor-
=36-	=36-	=36-	=36-	=36-	=36-
!	!	!	!	!LO:LB:g=original	!
4G/	e-	2g/	e-	1b	-nu
4A/	.	.	.	.	.
4B/	.	2dd\	-ius	.	.
4c/	.	.	.	.	.
1d	.	1dd	e-	1a	e-
=37-	=37-	=37-	=37-	=37-	=37-
2g\	-ius	2b\	-ius	2b\	-ius
1c	cor-	1g	cor-	1cc	cor-
2g\	-nu	2b\	-nu	2b\	-nu
=38-	=38-	=38-	=38-	=38-	=38-
!LO:TX:t=P:problem:kreska pseudotaktowa przerywana	!	!	!	!	!
0c	e-	1.g	e-	0cc	e-
!	!	!LO:TX:t=P:problem:kreska pseudotaktowa przerywana	!	!	!
.	.	2a\	.	.	.
=39-	=39-	=39-	=39-	=39-	=39-
!	!	!LO:TX:t=Ascensio Domini	!	!LO:TX:t=Na panni ÿwdowij 	!
0g;	-ius	0b;	-ius.	0b;<	-ius,
==	==	==	==	==	==
*-	*-	*-	*-	*-	*-
!!!system-decoration: [(s1)][(s2,s3)]
!!!RDF**kern: > = above
!!!RDF**kern: < = below
!!!AIN: 3 empty
!!!ENC: Katarzyna Serwa
!!!END: 2021-10-23
!!!ENC: Anastazja Marusiak
!!!END: 2021-10-19
